X: 3886
T: Black Squirrels Of Letchworth, The
R: jig
M: 6/8
K: Dmajor
AG|FDD FAA|GBB Acc|~d3 efg|Bed cde|
dAG FDA|BGd cAe|~f3 gAB|cBc d:|
ge|fAd fag|eAc egf|~d3 e=cA|BGB =cAG|
FDD FAA|GBB Acc|~d3 efg|Bed cde|
fAd fag|eAc egf|~d3 e=cA|BGB =cge|
dAG FDA|BGd cAe|~f3 gAB|cBc d||

